findly-builder/apps/searchassist/src/assets/images/timer.svg

<svg width="14" height="14" viewBox="0 0 14 14" fill="none" xmlns="http://www.w3.org/2000/svg">
<path fill-rule="evenodd" clip-rule="evenodd" d="M0.5 7C0.5 3.41015 3.41015 0.5 7 0.5C10.5899 0.5 13.5 3.41015 13.5 7C13.5 10.5899 10.5899 13.5 7 13.5C6.74234 13.5 6.54713 13.2775 6.56073 13.0202L6.56684 12.9045C6.57914 12.6718 6.77567 12.4918 7.0086 12.5C10.0422 12.4954 12.5 10.0347 12.5 7C12.5 3.96243 10.0376 1.5 7 1.5C3.96243 1.5 1.5 3.96243 1.5 7C1.5 8.49877 2.09883 9.85667 3.07141 10.8492L3.07142 9.64285C3.07143 9.36671 3.29528 9.14286 3.57143 9.14286C3.84757 9.14286 4.07143 9.36672 4.07143 9.64286V12.6429H1.07143C0.795286 12.6429 0.571429 12.419 0.571429 12.1429C0.571429 11.8667 0.795287 11.6429 1.07143 11.6429H2.44186L2.35041 11.5422C1.20607 10.3709 0.5 8.76742 0.5 7ZM6.5 7V3.64286C6.5 3.36671 6.72386 3.14286 7 3.14286C7.27614 3.14286 7.5 3.36671 7.5 3.64286V6.79289L9.57143 8.86432C9.76669 9.05958 9.76669 9.37617 9.57143 9.57143C9.37617 9.76669 9.05958 9.76669 8.86432 9.57143L6.64645 7.35355C6.55268 7.25979 6.5 7.13261 6.5 7Z" fill="#9AA0A6"/>
</svg>

<svg width="14" height="14" fill="none" xmlns="http://www.w3.org/2000/svg"><path fill-rule="evenodd" clip-rule="evenodd" d="M.5 7A6.5 6.5 0 1 1 7 13.5a.447.447 0 0 1-.44-.48l.007-.115a.427.427 0 0 1 .442-.405 5.5 5.5 0 1 0-3.938-1.65V9.642a.5.5 0 0 1 1 0v3h-3a.5.5 0 0 1 0-1h1.37l-.09-.1A6.48 6.48 0 0 1 .5 7Zm6 0V3.643a.5.5 0 1 1 1 0v3.15l2.071 2.071a.5.5 0 0 1-.707.707L6.646 7.354A.5.5 0 0 1 6.5 7Z" fill="#9AA0A6"/></svg>
